packages/amis-theme-editor-helper/src/icons/underline.svg

<?xml version="1.0" encoding="UTF-8"?>
<svg width="16px" height="16px" viewBox="0 0 16 16" version="1.1" xmlns="http://www.w3.org/2000/svg" xmlns:xlink="http://www.w3.org/1999/xlink">
    <g id="11.1终稿" stroke="none" stroke-width="1" fill="none" fill-rule="evenodd">
        <g id="图标" transform="translate(-189.000000, -209.000000)">
            <g id="字符下划线" transform="translate(189.000000, 209.000000)">
                <rect id="矩形备份-9" opacity="0.5" x="0" y="0" width="16" height="16"></rect>
                <path d="M8.20648148,11.5205022 C9.54685185,11.5205022 10.5735185,11.1595647 11.3007407,10.4665647 C12.027963,9.75912719 12.3987037,8.73406469 12.3987037,7.39137719 L12.3987037,1.75435242 L10.8444444,1.75435242 L10.8444444,7.42025219 C10.8444444,8.34425219 10.6305556,9.02281469 10.217037,9.47037719 C9.78925926,9.91793969 9.11907407,10.1489397 8.20648148,10.1489397 C7.27962963,10.1489397 6.60944444,9.91793969 6.18166667,9.47037719 C5.75388889,9.02281469 5.55425926,8.34425219 5.55425926,7.42025219 L5.55425926,1.75435242 L4,1.75435242 L4,7.39137719 C4,8.73406469 4.37074074,9.75912719 5.11222222,10.4810022 C5.82518519,11.1740022 6.85185185,11.5205022 8.20648148,11.5205022 Z" id="U" fill="currentColor" fill-rule="nonzero"></path>
                <rect id="矩形" fill="currentColor" x="3" y="12.7543524" width="10.1851852" height="1.546875"></rect>
            </g>
        </g>
    </g>
</svg>

<svg width="16" height="16" xmlns="http://www.w3.org/2000/svg"><g fill="none" fill-rule="evenodd"><path opacity=".5" d="M0 0h16v16H0z"/><path d="M8.206 11.52c1.34 0 2.368-.36 3.095-1.053.727-.708 1.098-1.733 1.098-3.076V1.754h-1.555V7.42c0 .924-.213 1.603-.627 2.05-.428.448-1.098.679-2.01.679-.927 0-1.598-.231-2.025-.679-.428-.447-.628-1.126-.628-2.05V1.754H4v5.637c0 1.343.37 2.368 1.112 3.09.713.693 1.74 1.04 3.094 1.04Z" fill="currentColor" fill-rule="nonzero"/><path fill="currentColor" d="M3 12.754h10.185v1.547H3z"/></g></svg>
